outline/svg/layout-outline.svg

<svg xmlns="http://www.w3.org/2000/svg" viewBox="0 0 24 24"><g data-name="Layer 2"><path d="M18 3H6a3 3 0 0 0-3 3v12a3 3 0 0 0 3 3h12a3 3 0 0 0 3-3V6a3 3 0 0 0-3-3zM6 5h12a1 1 0 0 1 1 1v2H5V6a1 1 0 0 1 1-1zM5 18v-8h6v9H6a1 1 0 0 1-1-1zm13 1h-5v-9h6v8a1 1 0 0 1-1 1z" data-name="layout"/></g></svg>

<svg xmlns="http://www.w3.org/2000/svg" viewBox="0 0 24 24"><defs><style>.cls-1{fill:#fff;opacity:0;}.cls-2{fill:#231f20;}</style></defs><title>layout</title><g id="Layer_2" data-name="Layer 2"><g id="layout"><g id="layout-2" data-name="layout"><rect class="cls-1" width="24" height="24"/><path class="cls-2" d="M18,3H6A3,3,0,0,0,3,6V18a3,3,0,0,0,3,3H18a3,3,0,0,0,3-3V6A3,3,0,0,0,18,3ZM6,5H18a1,1,0,0,1,1,1V8H5V6A1,1,0,0,1,6,5ZM5,18V10h6v9H6A1,1,0,0,1,5,18Zm13,1H13V10h6v8A1,1,0,0,1,18,19Z"/></g></g></g></svg>
